X:1
T:Piano Sonate op.27-2 "Mondschein" 1st mov.
T:Piano Sonate op.27-2 "Mondschein" 1st mov.
T:Arranged by Hayley & Sachiko
T:beethoven
C:beethoven
%%score { ( 1 3 ) | ( 2 4 5 ) } ( 6 7 )
L:1/8
Q:1/4=60
M:4/4
K:E
V:1 treble nm="Piano" snm="Pno."
V:3 treble 
V:2 bass 
V:4 bass 
V:5 bass 
V:6 treble transpose=-2 nm="B♭ Clarinet" snm="B♭ Cl."
V:7 treble transpose=-2 
V:1
 (3G,CE (3G,CE (3G,CE (3G,CE | (3G,CE (3G,CE (3G,CE (3G,CE | (3A,CE (3A,CE (3A,=DF (3A,DF | %3
 (3G,^B,F (3G,CE (3G,C^D (3F,B,D | z4 z2 G>G | G6 G>G | G4 A4 | G4 F2 B2 | E2 z2 z4 | z4 z2 =G>G | %10
 F4 =G2 E2 | F4 F4 | (3B,=DF z2 z2 B2 | =c6 ^A2 | B6 B2 | =c6 ^A2 | B4 B4 | B4 =A4 | =G4 F4 | %19
 C4 C2 C2 | z4 z2 c>c | c6 c>c | c4 ^B2 c2 | d6 d2 | e4 d2 c2 | (3^B^B,D G2 =A2 F2 | %26
 (3z ^B,D G,2 A,2 F,2 | x2 c2 e2 c2 | z8 | x2!<(! (3^B,A,D (3B,FD (3AF^B!<)! | %30
 x2!<(! (3ECG (3EcG (3ecG!<)! | (3C^^FE (3^AFc (3Aec (3^^fe^a | (3^F^B=A (3dB^f (3d=af (3^bad' | %33
 (3^bfa (3df^B (3dAB (3FAD | (3F^B,D[K:bass] (3A,^B,F, (3A,D,F, (3C,F,A, | %35
 (3B,,F,G, (3A,G,F, (3D,F,A, (3C,F,A, | (3B,,F,G, (3A,G,F, (3D,F,A, (3C,F,A, | %37
 (3B,,F,G, (3A,G,F, (3C,E,C (3C,E,C | (3D,A,C (3D,A,C (3D,G,^B, (3D,F,B, | %39
 (3E,G,C[K:treble] (3G,CE (3G,CE G>G | G6 G>G | G4 A4 | G4 F2 B2 | E2 z2 z2 B>B | B6 B>B | %45
 B4 ^B2 c2 | d4 e4 | =d4 ^B4 | c6 c2 | =d6 ^B2 | c6 c2 | =d6 ^B2 | c4 c4 | =B6 B2 | A2 A2 G2 G2 | %55
 F4 G2 A2 | G4 G4 | C2 (3G,CE (3G,CE (3G,CE | (3G,DF (3G,DF (3G,DF (3G,DF | %59
 (3G,EC (3GEc (3Gec (3gec | (3^BdA (3BFA[K:bass] (3DFA,- ^B,2 | %61
 (3[E,C][K:treble]EC (3GEc (3Gec (3gec | (3^BdA (3BFA[K:bass] (3DFA,- ^B,2 | %63
 (3[E,C]G,C (3ECG, (3z E,G, (3CG,E, | (3z C,E, (3G,E,C, z4 | z4 [E,G,C]4 | !fermata![E,G,C]8 |] %67
V:2
!f! [C,,C,]8 |!>(! [B,,,B,,]8!>)! | [A,,,A,,]4 [F,,,F,,]4 |!<(! [G,,,G,,]4 [G,,,G,,]4!<)! | %4
!mf! (3E,G,C x2 x4 | [^B,,,G,,^B,,]8 | [C,,C,]4 [F,,,F,,]4 | [B,,,B,,]4 [B,,,B,,]4 | [E,,E,]8 | %9
 [E,,E,]8 | (3F,B,=D (3F,B,D (3=G,B,C (3E,B,C | (3F,B,=D (3F,B,D (3F,^A,C (3F,A,C | [B,,,B,,]8- | %13
 [B,,,B,,]2 [E,,E,]2 [=G,,=G,]2 [E,,E,]2 | [B,,,B,,]8- | [B,,,B,,]2 [E,,E,]2 [=G,,=G,]2 [E,,E,]2 | %16
 z8 | [^E,,,^E,,]4 [F,,,F,,]4 | (3=G,B,=D (3G,B,D (3F,A,^D (3F,A,D | %19
 (3C,F,A, (3C,F,A, (3C,F,G, (3C,^E,G, | (3F,A,C (3A,CF x4 | [^E,,C,^E,]8 | %22
 [F,,F,]4 [D,,D,]2 [C,,C,]2 | [^B,,,F,,^B,,]6 [B,,,F,,B,,]2 | %24
 [C,,G,,C,]4 [F,,,F,,]2 [^^F,,,^^F,,]2 | [G,,,G,,]8 | [G,,,G,,]8 | [G,,,G,,]8 | (3z E,G, C2 E2 C2 | %29
 (3D,A,F, x2 x4 | (3E,CG, x2 x4 | [G,,,G,,]8 | [G,,,G,,]8- | [G,,,G,,]8- | [G,,,G,,]8 | %35
 [G,,,G,,]8 | [G,,,G,,]8 | [G,,,G,,]4 [A,,,A,,]4 | [F,,,F,,]4 [G,,,G,,]4 | [C,,G,,C,]8 | %40
 [^B,,,G,,^B,,]8 | [C,,C,]4 [F,,,F,,]4 | [B,,,B,,]4 [B,,,B,,]4 | [E,,E,]8 | [D,,D,]8 | %45
 [E,,E,]4 [D,,D,]2 [C,,C,]2 | [^B,,,G,,^B,,]4 [C,,G,,C,]4 | [F,,,F,,]4 [G,,,G,,]4 | [C,,C,]8- | %49
 [C,,C,]2 [F,,F,]2 [A,,A,]2 [F,,F,]2 | [C,,C,]8- | [C,,C,]2 [F,,F,]2 [A,,A,]2 [F,,F,]2 | %52
 [C,,C,]4 [F,,,F,,]4 | [D,,D,]6 [E,,E,]2 | [C,,C,]2 [D,,D,]2 [^B,,,^B,,]2 [C,,C,]2 | %55
 (3F,CD (3F,CD (3G,CD (3A,CD | (3G,CE (3G,CE (3F,^B,D (3F,B,D | (3E,G,C x2 x4 | G,,6 G,,>G,, | %59
 G,,6 G,,>G,, | G,,6 G,,>G,, | G,,6 G,,>G,, | G,,6 G,,>G,, | G,,4 C,4 | %64
 G,,4 (3G,,C,G,, (3E,,G,,E,, | C,,4 [C,,G,,C,]4 | !fermata![C,,G,,C,]8 |] %67
V:3
 x8 | x8 | x8 | x8 | x2 (3G,CE (3G,CE (3G,CE | (3G,DF (3G,DF (3G,DF (3G,DF | %6
 (3G,CE (3G,CE (3A,CF (3A,CF | (3G,B,E (3G,B,E (3A,B,D (3A,B,D | (3G,B,E (3G,B,E (3G,B,E (3G,B,E | %9
 (3=G,B,E (3G,B,E (3G,B,E (3G,B,E | x8 | x8 | B,2 (3B,=DF (3B,^DF (3B,DF | %13
 (3B,E=G (3B,EG (3B,EG (3B,EG | (3B,^DF (3B,DF (3B,DF (3B,DF | (3B,E=G (3B,EG (3B,EG (3B,EG | %16
 (3B,DF (3B,DF (3B,=D^E (3B,=D^E | (3B,C^G (3B,CG (3A,CF (3A,CF | x8 | x8 | x4 (3CFA (3CFA | %21
 (3CGB (3CGB (3CGB (3CGB | (3CFA (3CFA (3^B,FA (3CFA | (3DFG (3DFG (3DFG (3DFG | %24
 (3EGc (3EGc (3DFA (3CE^A | x2 (3G^B,D (3AB,D (3FB,D | x2 (3G,^B,D (3A,B,D (3F,B,D | %27
 (3E,EG (3cEG (3eEG (3cEG | x8 | x8 | x8 | x8 | x8 | x8 | x4[K:bass] (3:2:2A, D,2 C,2 | %35
 ^B,,4 D,2 C,2 | ^B,,4 x2 C,2 | ^B,,4 x4 | x8 | x2[K:treble] x4 (3G,CE | %40
 (3G,DF (3G,DF (3G,DF (3G,DF | (3G,CE (3G,CE (3A,CF (3A,CF | (3G,B,E (3G,B,E (3A,B,D (3A,B,D | %43
 (3G,B,E (3B,EG (3B,EG (3B,EG | (3B,FA (3B,FA (3B,FA (3B,FA | (3B,EG (3B,EG (3^B,FG (3CEG | %46
 (3DFG (3DFG (3EGc (3EGc | (3=DFA (3DFA (3^B,FG (3B,FG | (3CEG (3CEG (3C^EG (3CEG | %49
 (3CFA (3CFA (3CFA (3CFA | (3C^EG (3CEG (3CEG (3CEG | (3CFA (3CFA (3CFA (3CFA | %52
 (3C^EG (3CEG (3CFA (3CFA | (3=B,FA (3B,FA (3B,FA (3B,=EG | (3A,EG (3A,DF (3G,DF (3G,CE | x8 | x8 | %57
 x8 | x8 | x8 | x4[K:bass] x2 (3A,G,F, | x2/3[K:treble] x22/3 | x4[K:bass] x2 (3A,G,F, | x8 | x8 | %65
 x8 | x8 |] %67
V:4
 x8 | x8 | x8 | x8 | [C,,G,,C,]8 | x8 | x8 | x8 | x8 | x8 | [B,,,B,,]4 E,,2 =G,,2 | %11
 F,,4 [F,,,F,,]4 | x8 | x8 | x8 | x8 | x8 | x8 | [B,,,B,,]4 [^B,,,^B,,]4 | C,,4 C,,4 | %20
 [F,,,C,,F,,]8 | x8 | x8 | x8 | x8 | x8 | x8 | x8 | x2 (3CE,G, (3EE,G, (3CE,G, | [G,,,G,,]8 | %30
 [G,,,G,,]8 | x8 | x8 | x8 | x8 | x8 | x8 | x8 | x8 | x8 | x8 | x8 | x8 | x8 | x8 | x8 | x8 | x8 | %48
 x8 | x8 | x8 | x8 | x8 | x8 | x8 | [A,,,A,,]4 [G,,,G,,]2 [F,,,F,,]2 | [G,,,G,,]4 [G,,,G,,]4 | %57
 G,,6 G,,>G,, | ^B,,,8 | C,,8 | G,,,8 | C,,8 | G,,,8 | C,,8- | C,,8 | x8 | x8 |] %67
V:5
 x8 | x8 | x8 | x8 | x8 | x8 | x8 | x8 | x8 | x8 | x8 | x8 | x8 | x8 | x8 | x8 | x8 | x8 | x8 | %19
 x8 | x8 | x8 | x8 | x8 | x8 | x8 | x8 | x8 | [G,,,G,,]8 | x8 | x8 | x8 | x8 | x8 | x8 | x8 | x8 | %37
 x8 | x8 | x8 | x8 | x8 | x8 | x8 | x8 | x8 | x8 | x8 | x8 | x8 | x8 | x8 | x8 | x8 | x8 | x8 | %56
 x8 | C,,8 | x8 | x8 | x8 | x8 | x8 | x8 | x8 | x8 | x8 |] %67
V:6
[K:F#] z8 | z8 | z8 | z8 |!mf! z4 z2 A>A | A2 z4 A>A | A4 B4 | A4!>(! G2 c2!>)! | F4 z4 | %9
 z4 z2 =A>A | G4 =A2 F2 | G4 G4 | (3C=EG z2 z2 c2 | =d4 c2 ^B2 | c6 c2 | =d4 c2 ^B2 | z4 z4 | %17
 z4 z4 | =A4 G4 | D4 D2 D2 | z4 z2 d>d | d2 z4 d>d | d4 ^^c2 d2 | e6 e2 | f4 e2 d2 | z8 | %26
 (3z ^^CE A,2 B,2 G,2 | x2 (d2 f2 d2) | z8 | x2!<(! (3(^^CB,E (3CGE (3BG^^c)!<)! | %30
 x2!>(! (3(FDA (3FdA (3fdA)!>)! |!mf! (3(D^^GF (3^BGd (3Bfd) z2 | %32
 (3^G^^c=B (3ec^g (3e=bg- (3g3/2 z/ z | z2 z2 (3(eB^^c (3GBE) | (3(G^^CE) z2 z2 z2 | (A3 z c2 B2) | %36
 (A4 =c2 B2) | (A4 B2 B2) | c4 c4 | z2 (3(A,DF (3A,DF A>A) | (A6 A>A) |!p! z4 z4 | z4 z2 z2 | %43
 F2!<(! z2 z2 c>c!<)! | c6 c>c | z4 z2 z2 | e4 f4 | z4 z4 | d6 d2 | =e2 G2 B2 G2 | d6 d2 | %51
 =e2 e2 g2 ^^c2 | d4 d4 | ^c6 c2 | B2 B2 A2 A2 | G4 A2 B2 | A4 A4 | D2 (3A,DF (3A,DF (3A,DF | %58
 (3A,EG (3A,EG (3A,EG (3A,EG | (3A,FD (3AFd (3Afd (3afd | (3^^ceB (3cGB (3EGB,- B, z | %61
 (3[F,D]FD (3AFd (3Afd (3afd | (3^^ceB (3cGB (3EGB,- z2 | (3[F,D]A,D (3FDA, (3z F,A, (3DA,F, | %64
 (3z B,D (3FDB, B,4 | z2 z2!p! D4 | z2 z2 z4 |] %67
V:7
[K:F#] x8 | x8 | x8 | x8 | x2 (3A,DF (3A,DF x2 | (3x EG (3A,EG (3A,EG x2 | x8 | x8 | x8 | %9
 (3=A,CF (3A,CF (3A,CF x2 | x8 | x8 | C2 (3C=EG (3C^EG x2 | x8 | x8 | x8 | %16
 (3CEG (3CEG (3C=E^^F (3C=E^^F | (3CD^A (3CDA (3B,DG (3B,DG | x8 | x8 | x4 (3DGB x2 | %21
 (3x Ac (3DAc (3DAc x2 | x8 | x8 | x8 | x8 | x2 (3A,^^CE (3B,CE (3G,CE | %27
 (3x (FA (3dFA (3fFA (3dFA) | x8 | x8 | x8 | x8 | x8 | x8 | x6 z2 | x8 | x8 | x8 | x8 | x8 | x8 | %41
 (3(A,DF (3A,DF (3B,DG (3B,DG) | (3A,CF (3A,CF (3B,CE (3B,CE | x8 | x8 | %45
 (3CFA (3CFA (3^^CGA (3DFA | x8 | (3=EGB (3EGB (3^^CGA (3CGA | x8 | x8 | x8 | x8 | x8 | x8 | x8 | %55
 x8 | x8 | x8 | x8 | x8 | x8 | x8 | x6 (3B,A, x | x8 | x8 | x8 | x8 |] %67

